teeny/solid/mongodb.svg

<svg width="15" height="15" viewBox="0 0 15 15" fill="none" xmlns="http://www.w3.org/2000/svg">
<path fill-rule="evenodd" clip-rule="evenodd" d="M7.86855 0.162138C7.77385 0.0588232 7.64013 0 7.49998 0C7.35982 0 7.2261 0.0588232 7.1314 0.162138L4.50011 3.03263C2.68016 5.01804 2.56571 8.02932 4.22971 10.1471L7 13.673V15H8V13.6729L10.7702 10.1471C12.4342 8.02932 12.3198 5.01803 10.4998 3.03263L7.86855 0.162138ZM8 3C8 2.72386 7.77614 2.5 7.5 2.5C7.22386 2.5 7 2.72386 7 3V10.5C7 10.7761 7.22386 11 7.5 11C7.77614 11 8 10.7761 8 10.5V3Z" fill="black"/>
</svg>

<svg viewBox="0 0 15 15" xmlns="http://www.w3.org/2000/svg"><path fill-rule="evenodd" d="M7.86.16c-.1-.11-.23-.17-.37-.17 -.15 0-.28.05-.37.16L4.48 3.02C2.66 5 2.54 8.01 4.2 10.13l2.77 3.52v1.327h1v-1.33l2.77-3.53c1.66-2.12 1.54-5.13-.28-7.12L7.82.11Zm.13 2.83c0-.28-.23-.5-.5-.5 -.28 0-.5.22-.5.5v7.5c0 .27.22.5.5.5 .27 0 .5-.23.5-.5v-7.5Z"/></svg>
